X: 38338
T: Stackallen, The
R: reel
M: 4/4
K: Eminor
EGBG EGBG|EFAF BAGF|EGBG EGBA|BcBA GFED|
EGBG EGBG|D (3DDD F BAGF|BcBA GFEF|GBAF GEE2:|
Beed egfe|Adde fedA|Beef gaga|bagf geed|
Beed egfe|Adde Fgaf|bagf geed|BcBA GEE2:|

